X:29
T:29 Jeannet and Jeannot
C:Michael Turner's MS
N:As per STB but I think something's wrong with the accidentals
I:abc2nwc
M:2/4
L:1/16
K:D
F2FE DEFG|A2d2 A4|F2A2 D2F2|E^DEF E2A2|
FGFE DEFG|A2d2 A4|F2A2 D2F2|E^DEF =D4||
F2FF F2F2|D2F2 D4|A2AA A2A2|F2A2 F4|
[F2B2][FB][FB] [F2B2][F2B2] |[F2B2][FB][FB] [F2B2][F2B2] |[F2c2]dc B2cB|A2A,B, CDE^E||
F2FE DEFG|A2d2 A4|F2A2 D2F2|E^DEF E2A2|
FGFE DEFG|A2d2 A4|F2A2 D2F2|E^DEF "Fine"=D2||
K:G
D2|G3G A2A2|[G3d3]B [D2G2]BG|E2 c4AF|GFGA G2DD|
G3G A2A2|d3B G2BG|E2 c4AF|G6"D.C. al Fine"AG|]

